X:10958
T:Miss Patterson's Slipper
R:reel
H:See also #179.
D:Paddy Glackin: In Full Spate
Z:id:hn-reel-685
M:C|
K:Ddor
[D3A,3][DA,] [D2A,2]FD|ECB,C G,CEC|A,D~D2 D2FD|EGcG EDDC|
A,D~D2 D2FD|ECB,C G,CEC|A,D~D2 D2FD|EGcG EDD2:|
|:Ag^fg egdg|ecBc Gcec|Ag^fg egdB|cGEG (3^FED EC|
Dg^fg egdg|ecBc e^fgG|^FGAB cGEG|A2GE EDD2:|
|:Ad^fd Adfd|ecBc Gcec|Ad^fd Adfa|gebe ^fde^c|
Ad^fd Adfd|ecBc e^fgG|^FGAB cGEG|1 A2GE EDD2:|2 A2GE EDDC||
